X: 7226
T: Clan Coco
R: reel
M: 4/4
K: Edorian
|:f3e dBBA|B3 d A4|B3 d AdBA|de e2 ed (3Bcd|
f3e edBA|B3d ABBA|G2 (3ABd ABBA|effe d4:|
|:ABBA BBAB|BBdB ABdB|f3e fedf|
[1 efed B2 AB|BBdA BBAB|BBdB ABdA|effd eA A2|effe d4:|
[2 efed Baag|f3e dBBA|Bdde ABBA|G2 (3ABd ABBA|effe d4||

